synths/sCAD.svg

<svg width="480" height="480" viewBox="0 0 480 480" fill="none" xmlns="http://www.w3.org/2000/svg">
<mask id="mask0-138385" mask-type="alpha" maskUnits="userSpaceOnUse" x="0" y="0" width="480" height="480">
<circle cx="240" cy="240" r="240" fill="url(#paint0_linear-696039)"/>
</mask>
<g mask="url(#mask0-138385)">
<circle cx="240" cy="240" r="240" fill="#31D8A4"/>
<circle cx="240" cy="240" r="208" fill="white"/>
</g>
<circle cx="240" cy="240" r="184" fill="#0E052F"/>
<path d="M188.44 305.34C181.12 305.34 174.22 304.26 167.74 302.1C161.38 299.82 155.68 296.16 150.64 291.12C143.8 284.16 139.12 276.36 136.6 267.72C134.2 259.08 133 249.48 133 238.92C133 228.36 134.2 218.82 136.6 210.3C139.12 201.66 143.86 193.86 150.82 186.9C155.86 181.86 161.56 178.26 167.92 176.1C174.4 173.82 181.24 172.68 188.44 172.68C195.28 172.68 201.64 173.82 207.52 176.1C213.4 178.26 218.56 181.38 223 185.46C227.44 189.54 230.98 194.4 233.62 200.04C236.26 205.56 237.82 211.68 238.3 218.4H214.54C213.94 210.6 211.3 204.54 206.62 200.22C201.94 195.9 195.64 193.74 187.72 193.74C183.64 193.74 179.8 194.46 176.2 195.9C172.6 197.34 169.54 199.44 167.02 202.2C162.82 206.76 160 211.98 158.56 217.86C157.24 223.74 156.58 230.76 156.58 238.92C156.58 247.08 157.24 254.16 158.56 260.16C160 266.04 162.82 271.26 167.02 275.82C172.3 281.46 179.2 284.28 187.72 284.28C195.28 284.28 201.4 282.18 206.08 277.98C210.76 273.66 213.58 267.66 214.54 259.98H238.3C237.58 266.94 235.78 273.24 232.9 278.88C230.14 284.4 226.54 289.14 222.1 293.1C217.66 297.06 212.56 300.12 206.8 302.28C201.04 304.32 194.92 305.34 188.44 305.34Z" fill="white"/>
<path d="M293.563 302.28C287.563 301.8 281.923 300.48 276.643 298.32C271.363 296.04 266.803 293.1 262.963 289.5C259.123 285.9 256.063 281.76 253.783 277.08C251.503 272.4 250.303 267.3 250.183 261.78H272.323C272.563 267.66 274.603 272.58 278.443 276.54C282.403 280.38 287.443 282.6 293.563 283.2V247.56L285.103 246.3C275.383 244.98 267.643 241.32 261.883 235.32C256.243 229.32 253.423 221.7 253.423 212.46C253.423 207.66 254.503 203.16 256.663 198.96C258.823 194.64 261.763 190.86 265.483 187.62C269.203 184.26 273.463 181.56 278.263 179.52C283.183 177.48 288.283 176.22 293.563 175.74V159H306.703V176.1C312.103 176.82 317.083 178.26 321.643 180.42C326.203 182.46 330.163 185.1 333.523 188.34C336.883 191.58 339.523 195.3 341.443 199.5C343.483 203.7 344.623 208.2 344.863 213H322.723C322.483 208.68 320.863 204.96 317.863 201.84C314.983 198.6 311.263 196.38 306.703 195.18V228.12L312.823 229.02C317.383 229.74 321.703 231 325.783 232.8C329.863 234.6 333.403 236.94 336.403 239.82C339.523 242.7 341.923 246.18 343.603 250.26C345.403 254.22 346.303 258.72 346.303 263.76C346.303 269.16 345.283 274.08 343.243 278.52C341.323 282.84 338.563 286.68 334.963 290.04C331.483 293.28 327.283 295.98 322.363 298.14C317.563 300.18 312.343 301.5 306.703 302.1V320.64H293.563V302.28ZM306.703 283.02C312.343 282.06 316.723 280.02 319.843 276.9C322.963 273.66 324.523 269.58 324.523 264.66C324.523 260.1 323.023 256.74 320.023 254.58C317.023 252.3 313.603 250.8 309.763 250.08L306.703 249.54V283.02ZM293.563 194.64C288.523 195.36 284.203 197.22 280.603 200.22C277.123 203.1 275.383 207 275.383 211.92C275.383 216.12 276.523 219.3 278.803 221.46C281.203 223.5 284.323 224.82 288.163 225.42L293.563 226.32V194.64Z" fill="white"/>
<defs>
<linearGradient id="paint0_linear-696039" x1="240" y1="0" x2="240" y2="701.818" gradientUnits="userSpaceOnUse">
<stop stop-color="#08021E"/>
<stop offset="1" stop-color="#1F0777"/>
</linearGradient>
</defs>
</svg>

<svg width="480" height="480" viewBox="0 0 480 480" fill="none" xmlns="http://www.w3.org/2000/svg"><mask id="mask0-138385" maskUnits="userSpaceOnUse" x="0" y="0" width="480" height="480"><circle cx="240" cy="240" r="240" fill="url(#paint0_linear-696039)"/></mask><g mask="url(#mask0-138385)"><circle cx="240" cy="240" r="240" fill="#31D8A4"/><circle cx="240" cy="240" r="208" fill="#fff"/></g><circle cx="240" cy="240" r="184" fill="#0E052F"/><path d="M188.44 305.34c-7.32 0-14.22-1.08-20.7-3.24-6.36-2.28-12.06-5.94-17.1-10.98-6.84-6.96-11.52-14.76-14.04-23.4-2.4-8.64-3.6-18.24-3.6-28.8 0-10.56 1.2-20.1 3.6-28.62 2.52-8.64 7.26-16.44 14.22-23.4 5.04-5.04 10.74-8.64 17.1-10.8 6.48-2.28 13.32-3.42 20.52-3.42 6.84 0 13.2 1.14 19.08 3.42 5.88 2.16 11.04 5.28 15.48 9.36 4.44 4.08 7.98 8.94 10.62 14.58 2.64 5.52 4.2 11.64 4.68 18.36h-23.76c-.6-7.8-3.24-13.86-7.92-18.18s-10.98-6.48-18.9-6.48c-4.08 0-7.92.72-11.52 2.16-3.6 1.44-6.66 3.54-9.18 6.3-4.2 4.56-7.02 9.78-8.46 15.66-1.32 5.88-1.98 12.9-1.98 21.06 0 8.16.66 15.24 1.98 21.24 1.44 5.88 4.26 11.1 8.46 15.66 5.28 5.64 12.18 8.46 20.7 8.46 7.56 0 13.68-2.1 18.36-6.3 4.68-4.32 7.5-10.32 8.46-18h23.76c-.72 6.96-2.52 13.26-5.4 18.9-2.76 5.52-6.36 10.26-10.8 14.22-4.44 3.96-9.54 7.02-15.3 9.18-5.76 2.04-11.88 3.06-18.36 3.06zm105.123-3.06c-6-.48-11.64-1.8-16.92-3.96-5.28-2.28-9.84-5.22-13.68-8.82-3.84-3.6-6.9-7.74-9.18-12.42-2.28-4.68-3.48-9.78-3.6-15.3h22.14c.24 5.88 2.28 10.8 6.12 14.76 3.96 3.84 9 6.06 15.12 6.66v-35.64l-8.46-1.26c-9.72-1.32-17.46-4.98-23.22-10.98-5.64-6-8.46-13.62-8.46-22.86 0-4.8 1.08-9.3 3.24-13.5 2.16-4.32 5.1-8.1 8.82-11.34 3.72-3.36 7.98-6.06 12.78-8.1a52.02 52.02 0 0115.3-3.78V159h13.14v17.1c5.4.72 10.38 2.16 14.94 4.32 4.56 2.04 8.52 4.68 11.88 7.92 3.36 3.24 6 6.96 7.92 11.16 2.04 4.2 3.18 8.7 3.42 13.5h-22.14c-.24-4.32-1.86-8.04-4.86-11.16-2.88-3.24-6.6-5.46-11.16-6.66v32.94l6.12.9c4.56.72 8.88 1.98 12.96 3.78 4.08 1.8 7.62 4.14 10.62 7.02 3.12 2.88 5.52 6.36 7.2 10.44 1.8 3.96 2.7 8.46 2.7 13.5 0 5.4-1.02 10.32-3.06 14.76-1.92 4.32-4.68 8.16-8.28 11.52-3.48 3.24-7.68 5.94-12.6 8.1-4.8 2.04-10.02 3.36-15.66 3.96v18.54h-13.14v-18.36zm13.14-19.26c5.64-.96 10.02-3 13.14-6.12 3.12-3.24 4.68-7.32 4.68-12.24 0-4.56-1.5-7.92-4.5-10.08-3-2.28-6.42-3.78-10.26-4.5l-3.06-.54v33.48zm-13.14-88.38c-5.04.72-9.36 2.58-12.96 5.58-3.48 2.88-5.22 6.78-5.22 11.7 0 4.2 1.14 7.38 3.42 9.54 2.4 2.04 5.52 3.36 9.36 3.96l5.4.9v-31.68z" fill="#fff"/><defs><linearGradient id="paint0_linear-696039" x1="240" y1="0" x2="240" y2="701.818" gradientUnits="userSpaceOnUse"><stop stop-color="#08021E"/><stop offset="1" stop-color="#1F0777"/></linearGradient></defs></svg>
